X:995
T:Stumpey
C:Traditional English
M:2/2
L:1/4
S:Colin Hume's website,  colinhume.com  - chords can also be printed below the stave.
Q:1/2=112
B:Joseph Lowe - Lowe's Collection of Reels, Strathspeys and Jigs, Book 1 (1844-1845, p. 1)
R:Reel
Z:Chris Partington <www.cpartington.plus.com> but without the chords
K:A
P:A
|: A | "A"ce a2 | "/"a/g/f/e/ a2 | "A"ce "F#m"ag/a/ | "Bm"bB "E7"Bd |\
"A"ce a2 | "/"a/g/f/e/ a>e | "A"ce "E7"Bd | "A"cA A :|
P:B
|: d | "A"ce ed/c/ | "D"df fe/d/ | "A"ce "F#m"ed/c/ | "Bm"fB "E7"Bd |\
"A"ce ed/c/ | "D"df fe/d/ | "A"ca "E7"Bd | "A"cA A :|

